svg/l/HT.svg

<svg width="32" height="24" viewBox="0 0 32 24" fill="none" xmlns="http://www.w3.org/2000/svg">
<g clip-path="url(#clip0_270_67395)">
<rect width="32" height="24" fill="white"/>
<path fill-rule="evenodd" clip-rule="evenodd" d="M0 0V24H32V0H0Z" fill="#2E42A5"/>
<mask id="mask0_270_67395" style="mask-type:luminance" maskUnits="userSpaceOnUse" x="0" y="0" width="32" height="24">
<path fill-rule="evenodd" clip-rule="evenodd" d="M0 0V24H32V0H0Z" fill="white"/>
</mask>
<g mask="url(#mask0_270_67395)">
<path fill-rule="evenodd" clip-rule="evenodd" d="M0 12V24H32V12H0Z" fill="#E31D1C"/>
<rect x="10" y="8" width="12" height="8" fill="white"/>
<mask id="mask1_270_67395" style="mask-type:luminance" maskUnits="userSpaceOnUse" x="10" y="8" width="12" height="8">
<rect x="10" y="8" width="12" height="8" fill="white"/>
</mask>
<g mask="url(#mask1_270_67395)">
<path fill-rule="evenodd" clip-rule="evenodd" d="M10 14.5778C10 14.5778 12.8803 13.8205 16 13.8667C19.1197 13.9129 22 14.7556 22 14.7556V16H10V14.5778Z" fill="#279E19"/>
<path d="M16.0736 8.90116C16.0736 8.90116 15.1425 8.48178 14.4926 8.48178C13.8426 8.48178 13.4816 9.12189 13.4816 9.12189" stroke="#026A16" stroke-width="0.5"/>
<path d="M16.2805 9.32154C16.2805 9.32154 15.4237 9.01512 14.8257 9.01512C14.2276 9.01512 13.8954 9.48282 13.8954 9.48282" stroke="#026A16" stroke-width="0.5"/>
<path d="M16.2804 9.67709C16.2804 9.67709 15.6466 9.37067 15.2042 9.37067C14.7618 9.37067 14.516 9.83836 14.516 9.83836" stroke="#026A16" stroke-width="0.5"/>
<path d="M16.0199 10.0326C16.0199 10.0326 15.6283 9.72623 15.355 9.72623C15.0817 9.72623 14.9298 10.1939 14.9298 10.1939" stroke="#026A16" stroke-width="0.5"/>
<path d="M15.9864 10.2752C15.9864 10.2752 15.8298 10.0818 15.7205 10.0818C15.6113 10.0818 15.5505 10.3771 15.5505 10.3771" stroke="#026A16" stroke-width="0.5"/>
<path d="M15.9263 8.90116C15.9263 8.90116 16.8574 8.48178 17.5073 8.48178C18.1573 8.48178 18.5183 9.12189 18.5183 9.12189" stroke="#026A16" stroke-width="0.5"/>
<path d="M15.7194 9.32154C15.7194 9.32154 16.5761 9.01512 17.1742 9.01512C17.7723 9.01512 18.1045 9.48282 18.1045 9.48282" stroke="#026A16" stroke-width="0.5"/>
<path d="M15.7195 9.67709C15.7195 9.67709 16.3533 9.37067 16.7957 9.37067C17.2381 9.37067 17.4839 9.83836 17.4839 9.83836" stroke="#026A16" stroke-width="0.5"/>
<path d="M15.98 10.0326C15.98 10.0326 16.3716 9.72623 16.6449 9.72623C16.9182 9.72623 17.0701 10.1939 17.0701 10.1939" stroke="#026A16" stroke-width="0.5"/>
<path d="M16.0135 10.2752C16.0135 10.2752 16.17 10.0818 16.2793 10.0818C16.3886 10.0818 16.4493 10.3771 16.4493 10.3771" stroke="#026A16" stroke-width="0.5"/>
<path fill-rule="evenodd" clip-rule="evenodd" d="M15.8876 10.3982C15.8876 10.3982 15.7733 11.7356 15.7733 12.2799C15.7733 12.8242 15.8876 13.9986 15.8876 13.9986H16.1814C16.1814 13.9986 16.1814 12.7343 16.1814 12.2799C16.1814 11.8255 16.009 10.3982 16.009 10.3982H15.8876Z" fill="#FECA00"/>
<path fill-rule="evenodd" clip-rule="evenodd" d="M14.7321 11.9185C14.7321 11.9185 14.0079 12.3061 14.0079 13.4536L14.7321 14.8392H16.039V12.5574L14.7321 11.9185Z" fill="#C51918"/>
<path fill-rule="evenodd" clip-rule="evenodd" d="M13.659 10.826C13.659 10.826 11.9681 11.3269 11.9681 13.1747L14.1588 13.3616C14.1588 13.3616 14.0391 12.288 14.7132 11.7914L13.659 10.826Z" fill="#0A328C"/>
<path d="M12.9609 10.1209L15.8614 12.779" stroke="#FFD018" stroke-width="0.5"/>
<path d="M11.9536 10.7228L15.9991 13.3498" stroke="#FFD018" stroke-width="0.5"/>
<path d="M11.2572 11.7396L15.8168 13.8248" stroke="#FFD018" stroke-width="0.5"/>
<path fill-rule="evenodd" clip-rule="evenodd" d="M11.9799 13.1602L15.0055 13.4985L14.8352 13.9207H14.3555L14.6822 14.1593L15.4189 14.3317V13.9207H16.0641V14.7939H14.6822L14.1522 14.1593C14.1522 14.1593 13.707 14.5981 13.2726 14.5981C12.8381 14.5981 12.4098 14.4556 12.4098 13.9771C12.4098 13.4985 12.4098 13.6441 12.4098 13.6441L11.9799 13.4985V13.1602Z" fill="#FECA00"/>
<path fill-rule="evenodd" clip-rule="evenodd" d="M16.8542 11.9185C16.8542 11.9185 17.5784 12.3061 17.5784 13.4536L16.8542 14.8392H15.5473V12.5574L16.8542 11.9185Z" fill="#C51918"/>
<path fill-rule="evenodd" clip-rule="evenodd" d="M17.9274 10.826C17.9274 10.826 19.6182 11.3269 19.6182 13.1747L17.4276 13.3616C17.4276 13.3616 17.5472 12.288 16.8731 11.7914L17.9274 10.826Z" fill="#0A328C"/>
<path d="M18.6254 10.1209L15.7249 12.779" stroke="#FFD018" stroke-width="0.5"/>
<path d="M19.6327 10.7228L15.5872 13.3498" stroke="#FFD018" stroke-width="0.5"/>
<path d="M20.3291 11.7396L15.7695 13.8248" stroke="#FFD018" stroke-width="0.5"/>
<path fill-rule="evenodd" clip-rule="evenodd" d="M19.6064 13.1602L16.5808 13.4985L16.7511 13.9207H17.2308L16.9041 14.1593L16.1674 14.3317V13.9207H15.5222V14.7939H16.9041L17.4341 14.1593C17.4341 14.1593 17.8793 14.5981 18.3137 14.5981C18.7482 14.5981 19.1765 14.4556 19.1765 13.9771C19.1765 13.4985 19.1765 13.6441 19.1765 13.6441L19.6064 13.4985V13.1602Z" fill="#FECA00"/>
</g>
</g>
</g>
<defs>
<clipPath id="clip0_270_67395">
<rect width="32" height="24" fill="white"/>
</clipPath>
</defs>
</svg>

<svg width="32" height="24" fill="none" xmlns="http://www.w3.org/2000/svg">
  <mask id="a" maskUnits="userSpaceOnUse" x="0" y="0" width="32" height="24">
    <path fill="#fff" d="M0 0h32v24H0z"/>
  </mask>
  <g mask="url(#a)">
    <path fill-rule="evenodd" clip-rule="evenodd" d="M0 0v24h32V0H0z" fill="#2E42A5"/>
    <mask id="b" maskUnits="userSpaceOnUse" x="0" y="0" width="32" height="24">
      <path fill-rule="evenodd" clip-rule="evenodd" d="M0 0v24h32V0H0z" fill="#fff"/>
    </mask>
    <g mask="url(#b)">
      <path fill-rule="evenodd" clip-rule="evenodd" d="M0 12v12h32V12H0z" fill="#E31D1C"/>
      <path fill="#fff" d="M10 8h12v8H10z"/>
      <mask id="c" maskUnits="userSpaceOnUse" x="10" y="8" width="12" height="8">
        <path fill="#fff" d="M10 8h12v8H10z"/>
      </mask>
      <g mask="url(#c)">
        <path fill-rule="evenodd" clip-rule="evenodd" d="M10 14.578s2.88-.758 6-.711c3.12.046 6 .889 6 .889V16H10v-1.422z" fill="#279E19"/>
        <path d="M16.074 8.901s-.932-.42-1.581-.42c-.65 0-1.011.64-1.011.64" stroke="#026A16" stroke-width=".5"/>
        <path d="M16.28 9.322s-.856-.307-1.454-.307-.93.468-.93.468" stroke="#026A16" stroke-width=".5"/>
        <path d="M16.28 9.677s-.633-.306-1.076-.306c-.442 0-.688.467-.688.467" stroke="#026A16" stroke-width=".5"/>
        <path d="M16.02 10.033s-.392-.307-.665-.307-.425.468-.425.468" stroke="#026A16" stroke-width=".5"/>
        <path d="M15.986 10.275s-.156-.193-.266-.193c-.109 0-.17.295-.17.295m.376-1.476s.931-.42 1.581-.42c.65 0 1.011.64 1.011.64" stroke="#026A16" stroke-width=".5"/>
        <path d="M15.72 9.322s.856-.307 1.454-.307.93.468.93.468" stroke="#026A16" stroke-width=".5"/>
        <path d="M15.72 9.677s.633-.306 1.076-.306c.442 0 .688.467.688.467" stroke="#026A16" stroke-width=".5"/>
        <path d="M15.98 10.033s.392-.307.665-.307.425.468.425.468" stroke="#026A16" stroke-width=".5"/>
        <path d="M16.014 10.275s.156-.193.265-.193c.11 0 .17.295.17.295" stroke="#026A16" stroke-width=".5"/>
        <path fill-rule="evenodd" clip-rule="evenodd" d="M15.888 10.398s-.115 1.338-.115 1.882c0 .544.115 1.719.115 1.719h.293v-1.72c0-.454-.172-1.88-.172-1.88h-.121z" fill="#FECA00"/>
        <path fill-rule="evenodd" clip-rule="evenodd" d="M14.732 11.918s-.724.388-.724 1.536l.724 1.385h1.307v-2.282l-1.307-.639z" fill="#C51918"/>
        <path fill-rule="evenodd" clip-rule="evenodd" d="M13.659 10.826s-1.69.5-1.69 2.349l2.19.187s-.12-1.074.554-1.57l-1.054-.966z" fill="#0A328C"/>
        <path d="M12.96 10.12l2.901 2.659m-3.907-2.056l4.045 2.627m-4.742-1.61l4.56 2.085" stroke="#FFD018" stroke-width=".5"/>
        <path fill-rule="evenodd" clip-rule="evenodd" d="M11.98 13.16l3.025.338-.17.423h-.48l.327.238.737.173v-.411h.645v.873h-1.382l-.53-.635s-.445.44-.88.44c-.434 0-.862-.143-.862-.622v-.333l-.43-.146v-.338z" fill="#FECA00"/>
        <path fill-rule="evenodd" clip-rule="evenodd" d="M16.854 11.918s.724.388.724 1.536l-.724 1.385h-1.307v-2.282l1.307-.639z" fill="#C51918"/>
        <path fill-rule="evenodd" clip-rule="evenodd" d="M17.927 10.826s1.691.5 1.691 2.349l-2.19.187s.12-1.074-.555-1.57l1.054-.966z" fill="#0A328C"/>
        <path d="M18.625 10.12l-2.9 2.659m3.908-2.056l-4.046 2.627m4.743-1.61l-4.56 2.085" stroke="#FFD018" stroke-width=".5"/>
        <path fill-rule="evenodd" clip-rule="evenodd" d="M19.606 13.16l-3.025.338.17.423h.48l-.327.238-.737.173v-.411h-.645v.873h1.382l.53-.635s.445.44.88.44c.434 0 .863-.143.863-.622v-.333l.43-.146v-.338z" fill="#FECA00"/>
      </g>
    </g>
  </g>
</svg>
